X:588
T:Blackberry quadrille
R:Jig
O:USA
B:New England Fiddler's Repertoire
S:New England Fiddler's Repertoire
Z:Transcription, minor arr., chords:Mike Long
M:6/8
L:1/8
K:D
fg|\
"D"a2a ba^g|a2f d2f|"A"e2c Afg|"D"fdB "A"Afg|\
"D"a2a ba^g|a2f d2f|"A"e2c ABc|"D"dfe d:|
|:FG|\
"D"A2B "G"G2A|"D"F2A def|"G"g2e "A"c2e|"D"dfe "A"dcB|\
"D"A2B "G"G2A|"D"F2A def|"G"g2e "A"ABc|"D"d2f d:|
